X:1
T:Amara, 87.87 D
T:Amara, 87.87 D
T:William Oscar Perkins (1831-1902)
T:Public Domain Courtesy of the Cyber Hymnal™
C:William Oscar Perkins (1831-1902)
Z:Public Domain
Z:Courtesy of the Cyber Hymnal™
%%score ( 1 2 ) ( 3 4 )
L:1/8
Q:1/4=115
M:9/8
K:E
V:1 treble 
V:2 treble 
V:3 bass 
V:4 bass 
V:1
 E2 [EF] | [EG]3 [EG]3 ([GB][FA])[EG] | [DF]3 [DF]3 [DF]2 [EG] | [FA]3 [FA]3 ([Ac][GB])[FA] | %4
 [EG]6 E2 [EF] | [EG]3 [EG]3 ([GB][FA])[EG] | [DF]3 [DF]3 [DF]2 [EG] | %7
 [FA]3- [FA]2 [FA] ([FA][EG])[DF] | E6 [EB]2 [EB] | [Ec]3 [Ec]3 (AB)[Ec] | %10
 [EB]3 [EG]3 ([GB][FA])[EG] | [DF]3- [DF]2 [DF] ([DF][CE])[DF] | [EG]6 [EB]2 [EB] | %13
 [Ec]3 [Ec]3 (AB)[Ec] | [EB]3 [EG]3 ([GB][FA])[EG] | [DF]3- [DF]2 [DF] (FG)[DF] | E6 |] %17
V:2
 E2 x | x9 | x9 | x9 | x6 E2 x | x9 | x9 | x9 | E6 x3 | x6 E2 x | x9 | x9 | x9 | x6 E2 x | x9 | %15
 x6 D2 x | E6 |] %17
V:3
 [E,G,]2 [E,A,] | [E,B,]3 [E,B,]3 [E,E]2 [E,B,] | [B,,B,]3 [B,,B,]3 [B,,B,]2 [B,,B,] | %3
 [B,,B,]3 [B,,B,]3 [B,,B,]2 [B,,B,] | [E,B,]6 [E,G,]2 [E,A,] | [E,B,]3 [E,B,]3 [E,E]2 [E,B,] | %6
 [B,,B,]3 [B,,B,]3 [B,,B,]2 [B,,B,] | [B,,B,]3- [B,,B,]2 [B,,B,] [B,,B,]2 [B,,A,] | %8
 [E,G,]6 [E,G,]2 [E,G,] | A,3 A,3 (CB,)[C,A,] | [E,G,]3 [E,B,]3 [E,B,]2 [E,B,] | %11
 [B,,B,]3- [B,,B,]2 [B,,B,] [B,,B,]2 [B,,B,] | [E,B,]6 [E,G,]2 [E,G,] | A,3 A,3 (CB,)[C,A,] | %14
 [E,G,]3 [E,B,]3 [E,B,]2 [E,B,] | [B,,B,]3- [B,,B,]2 [B,,B,] [B,,B,]2 [B,,A,] | [E,G,]6 |] %17
V:4
 x3 | x9 | x9 | x9 | x9 | x9 | x9 | x9 | x9 | A,3 A,3 A,,2 x | x9 | x9 | x9 | A,3 A,3 A,,2 x | x9 | %15
 x9 | x6 |] %17

